svg/24/display.svg

<svg width="24" height="24" viewBox="0 0 24 24" fill="currentColor" xmlns="http://www.w3.org/2000/svg"><path fill-rule="evenodd" clip-rule="evenodd" d="M2 6C2 4.89543 2.89543 4 4 4H20C21.1046 4 22 4.89543 22 6V15C22 16.1046 21.1046 17 20 17H4C2.89543 17 2 16.1046 2 15V6ZM4 5.5H20C20.2761 5.5 20.5 5.72386 20.5 6V15C20.5 15.2761 20.2761 15.5 20 15.5H4C3.72386 15.5 3.5 15.2761 3.5 15V6C3.5 5.72386 3.72386 5.5 4 5.5Z"/><path d="M9.75 18.5C9.33579 18.5 9 18.8358 9 19.25C9 19.6642 9.33579 20 9.75 20H14.25C14.6642 20 15 19.6642 15 19.25C15 18.8358 14.6642 18.5 14.25 18.5H9.75Z"/></svg>

<svg xmlns="http://www.w3.org/2000/svg" width="24" height="24" fill="currentColor" viewBox="0 0 24 24">
  <path fill-rule="evenodd" d="M2 6a2 2 0 0 1 2-2h16a2 2 0 0 1 2 2v9a2 2 0 0 1-2 2H4a2 2 0 0 1-2-2V6Zm2-.5h16a.5.5 0 0 1 .5.5v9a.5.5 0 0 1-.5.5H4a.5.5 0 0 1-.5-.5V6a.5.5 0 0 1 .5-.5Z" clip-rule="evenodd"/>
  <path d="M9.75 18.5a.75.75 0 0 0 0 1.5h4.5a.75.75 0 0 0 0-1.5h-4.5Z"/>
</svg>
